X: 24
T: Beloved Emblem
N: Derived from pawnee24.krn
O: Oklahoma, U.S.A.
N: from Pawnee Music by Frances Densmore, 1926
Z: transcribed to **kern format by David Huron, August 2000
C: Skidi and Chaui Bands, 1919
L: 1/8
M: 2/4
Q: 1/4=88
K: F clef=bass
%%linebreak <none>
(F E) (F E)[M:3/4] | 
D DD4 | 
E DD4-[M:2/4] | 
D4 | 
(F E) (F E)[M:3/4] | 
D DD4[M:2/4] | 
E DD2- | 
D4[M:3/4] | 
F ED2(D C[M:2/4] | 
A, A, A, G, | 
A,2(B, A,) | 
D, D, D, B,, | 
(F,> E,) (F,3/ E,/)[M:3/4] | 
D, D,D,4 | 
E, D,D,4 |]  



